svgs/duotone/industry-windows.svg

<svg xmlns="http://www.w3.org/2000/svg" viewBox="0 0 576 512"><!--! Font Awesome Pro 6.4.2 by @fontawesome - https://fontawesome.com License - https://fontawesome.com/license (Commercial License) Copyright 2023 Fonticons, Inc. --><path class="fa-primary" style="fill:var(--fa-primary-color,inherit);opacity:var(--fa-primary-opacity,1);" d="M363.9 148.8c11.5-6.6 15.5-21.2 8.9-32.7s-21.2-15.5-32.7-8.9L160 210.1v55.3L363.9 148.8zm192 0c11.5-6.6 15.5-21.2 8.9-32.7s-21.2-15.5-32.7-8.9L352 210.1v55.3L555.9 148.8zM136 312c-8.8 0-16 7.2-16 16v48c0 8.8 7.2 16 16 16h48c8.8 0 16-7.2 16-16V328c0-8.8-7.2-16-16-16H136zm128 0c-8.8 0-16 7.2-16 16v48c0 8.8 7.2 16 16 16h48c8.8 0 16-7.2 16-16V328c0-8.8-7.2-16-16-16H264zm112 16v48c0 8.8 7.2 16 16 16h48c8.8 0 16-7.2 16-16V328c0-8.8-7.2-16-16-16H392c-8.8 0-16 7.2-16 16z"/><path class="fa-secondary" style="fill:var(--fa-secondary-color,inherit);opacity:var(--fa-secondary-opacity,.4);" d="M32 64c0-17.7 14.3-32 32-32h64c17.7 0 32 14.3 32 32V210.1v5.3 50L352 155.6v54.4 5.3 50L544 155.6V304 432c0 26.5-21.5 48-48 48H80c-26.5 0-48-21.5-48-48V352 304 64zM136 312c-8.8 0-16 7.2-16 16v48c0 8.8 7.2 16 16 16h48c8.8 0 16-7.2 16-16V328c0-8.8-7.2-16-16-16H136zm128 0c-8.8 0-16 7.2-16 16v48c0 8.8 7.2 16 16 16h48c8.8 0 16-7.2 16-16V328c0-8.8-7.2-16-16-16H264zm112 16v48c0 8.8 7.2 16 16 16h48c8.8 0 16-7.2 16-16V328c0-8.8-7.2-16-16-16H392c-8.8 0-16 7.2-16 16z"/></svg>

<svg xmlns="http://www.w3.org/2000/svg" viewBox="0 0 576 512"><!--! Font Awesome Pro 6.1.1 by @fontawesome - https://fontawesome.com License - https://fontawesome.com/license (Commercial License) Copyright 2022 Fonticons, Inc. --><defs><style>.fa-secondary{opacity:.4}</style></defs><path class="fa-primary" d="M160 265.4V210.1L340.1 107.2C351.6 100.6 366.3 104.6 372.8 116.1C379.4 127.6 375.4 142.3 363.9 148.8L160 265.4zM352 265.4V210.1L532.1 107.2C543.6 100.6 558.3 104.6 564.8 116.1C571.4 127.6 567.4 142.3 555.9 148.8L352 265.4zM184 312C192.8 312 200 319.2 200 328V376C200 384.8 192.8 392 184 392H136C127.2 392 120 384.8 120 376V328C120 319.2 127.2 312 136 312H184zM312 312C320.8 312 328 319.2 328 328V376C328 384.8 320.8 392 312 392H264C255.2 392 248 384.8 248 376V328C248 319.2 255.2 312 264 312H312zM376 328C376 319.2 383.2 312 392 312H440C448.8 312 456 319.2 456 328V376C456 384.8 448.8 392 440 392H392C383.2 392 376 384.8 376 376V328z"/><path class="fa-secondary" d="M32 64C32 46.33 46.33 32 64 32H128C145.7 32 160 46.33 160 64V265.4L352 155.6V265.4L544 155.6V432C544 458.5 522.5 480 496 480H80C53.49 480 32 458.5 32 432V64zM136 312C127.2 312 120 319.2 120 328V376C120 384.8 127.2 392 136 392H184C192.8 392 200 384.8 200 376V328C200 319.2 192.8 312 184 312H136zM264 312C255.2 312 248 319.2 248 328V376C248 384.8 255.2 392 264 392H312C320.8 392 328 384.8 328 376V328C328 319.2 320.8 312 312 312H264zM376 376C376 384.8 383.2 392 392 392H440C448.8 392 456 384.8 456 376V328C456 319.2 448.8 312 440 312H392C383.2 312 376 319.2 376 328V376z"/></svg>
